X:1
T:Title
%%score ( 1 2 ) { 3 | 4 }
L:1/8
Q:1/4=90
M:4/4
K:G
V:1 treble nm="Grand Piano, Soprano"
V:2 treble 
V:3 bass nm="Choir Pad, Be Prepared, by Sylvia Lee"
V:4 bass 
V:1
 [B,D]>[CE] [DG]>[DG] [GB]>[Gd] [GB]>[GB] | [FA]>[FA] [DG]6 | [DG]>[DA] [GB]>[GB] [DB]>[DA] [EG]2 | %3
w: By~J.~R.~Laughterty * * * * * * *|||
 [GB]2 [Fd]6 | [Fe]>[Fd] [GB]>[GB] [GB]>[FA] [EG]>[EG] | [EG]>[CE] [B,D]6 | %6
w: |||
 [B,D]>[B,E] [B,G]>[B,G] [DG]>[EA] [DB]2 | [CA]2 [B,G]6 | B>B B2- [GB-]2 [GB]>[G_B] | %9
w: |||
 [GB]>[Gc] d->[Gd-] [Gd-]>[Gd-] [Gd]2 | [DG]>[FA] [GB]>[GB] [GB]>[FA] [DG]2 | %11
w: ||
 [GB]2 A->[FA-] [FA-]>[FA-] [FA]2 | B>B B2- [GB-]2 [GB]>[G_B] | %13
w: ||
 [GB]>[Gc] d->[Gd-] [Gd-]>[Gd-] [Gd]2 | [Ge]>[Ad] [GB]>[GB] [GB]>[Gc] [GB]2 | [FA]2 G>E D>^C D2- | %16
w: |||
 D4 z4 |] %17
w: |
V:2
 x8 | x8 | x8 | x8 | x8 | x8 | x8 | x8 | z2 G2 z4 | z2 G2 z4 | x8 | z2 F2 z4 | z2 G2 z4 | %13
 z2 G2 z4 | x8 | x8 | x8 |] %17
V:3
 G,>G, B,>B, D>B,[K:treble] D>D | C>C B,6 | B,>C D>D[K:bass] G,>A, B,2 | G,2 A,6 | %4
 D>D D>D D>C[K:bass] B,>B, | C>G, G,6 | G,>G, G,>G, G,>G, G,2 | F,2 G,6 | z2[K:treble] D2 D2 D>^C | %9
 D>[K:bass]A, B,>B, B,>B, B,2 | D>D D>D D>D D2 | D2 D>D D>D D2 | z2 D2 D2 D>^C | %13
 D>[K:bass]A, B,>B, B,>B, B,2 | B,>[K:treble]D D>D D>E D2 | C2[K:bass] B,>C B,>_B, =B,2- | %16
 B,4 z4 |] %17
V:4
 z2 G,>G, G,>G, G,>G, | D,>D, G,6 | G,>G, G,>G, z z/ F,/ E,2 | E,2 D,6 | D,>D, G,>G, G,>D, E,>E, | %5
 C,>C, G,,6 | z2 E,>E, B,,>C, D,2 | D,2 G,,6 | z2 G,2 G,2 G,>G, | G,>G, G,>G, G,>G, G,2 | %10
 B,>A, G,>G, G,>A, B,2 | G,2 D,>D, D,>D, D,2 | z2 G,2 G,2 G,>G, | G,>G, G,>G, G,>G, G,2 | %14
 E,>F, G,>G, G,>C, D,2 | D,2 G,,6- | G,,4 z4 |] %17

